X: 53
T: Mocą imienia swego i swej wszechmocności
C: Mikołaj Gomółka
%%abc-version 2.0
%%abcx-abcm2ps-target-version 5.9.1 (29 Sep 2008)
%%abc-creator hum2abc beta
%%abcx-conversion-date 2021/10/04 07:59:09
%%abc-edited-by Leszek Kubiak
%%abcx-initial-encoding-date data 202-02-12
%%humdrum-veritas 786457511
%%humdrum-veritas-data 518116795
%%linebreak <none>
%%barnumbers 0
L: 1/4
M: C|
N: Derived from pl-wn--sd-xvi-qu-273--054_gomolka-mikolaj--moca-imienia-swego-i-swej-wszechmocnosci.krn
%%staves [1 2 3 4]
V: 1
V: 2 clef=alto
V: 3 clef=alto
V: 4 clef=bass
K: C
[V:1] G4G4 [|] 
[V:2] D4E6 [|] 
[V:3] B,4C6 [|] 
[V:4] G,4C,6 [|] 
[V:1] c2d2c2BA [|] 
[V:2] G2EFG2 [|] 
[V:3] B,2C2D2 [|] 
[V:4] G,2A,2B,2 [|] 
[V:1] GFGAB2G2 [|] 
[V:2] CDEFG2D2 [|] 
[V:3] E4D2B,2 [|] 
[V:4] C2C,2G,4 [|] 
[V:1] AGFED2G4 [|] 
[V:2] FED2D2E2 [|] 
[V:3] D2>C2B,2C2 [|] 
[V:4] D,2D,2G,2C,2 [|] 
[V:1] F2G4 [|] 
[V:2] D2>C2B,4 [|] 
[V:3] A,4G,4 [|] 
[V:4] D,4G,,4 [|] 
[V:1] B4c2c2 [|] 
[V:2] G4G2G2 [|] 
[V:3] D4E4 [|] 
[V:4] G,4E,2C,2 [|] 
[V:1] A2d4cB [|] 
[V:2] A4A2A2 [|] 
[V:3] F4F2F2 [|] 
[V:4] F,4D,E,F,G, [|] 
[V:1] cd2cd2d2 [|] 
[V:2] A4A2G2 [|] 
[V:3] E4D2D2 [|] 
[V:4] A,2>G,2^F,2G,2 [|] 
[V:1] e4A2G2 [|] 
[V:2] ^C4D3=C/B,/ [|] 
[V:3] G4F3E/D/ [|] 
[V:4] E,4D,2B,2 [|] 
[V:1] A2A2d3c [|] 
[V:2] CD2E^F2D2 [|] 
[V:3] EFE2D2B,2 [|] 
[V:4] A,4D,2G,3 [|] 
[V:1] BAGFEFGA [|] 
[V:2] D2EFGFE2 [|] 
[V:3] B,2B,2E2DC [|] 
[V:4] F,E,D,C,D,E,F, [|] 
[V:1] Bcd2DEFG [|] 
[V:2] D2>E2F4 [|] 
[V:3] B,A,B,CD2A,2 [|] 
[V:4] G,2G,2D,C,D,E, [|] 
[V:1] AG/A/B2>A2G4 [|] 
[V:2] F2D4E2 [|] 
[V:3] D2>C2B,2CB, [|] 
[V:4] F,2G,2G,,2C,2 [|] 
[V:1] F2G32 |]  
[V:2] D2>C2B,32 |]  
[V:3] A,G,A,2G,32 |]  
[V:4] D,4G,,32 |]  


